X: 8
T: 8. Lady Mildmay's Waltz
M: 3/8
L: 1/8
Q: 1/8=160
K: A
(a/e/a/e/a/e/) | ccc | (dB)B | cAA | a/e/a/e/a/e/ | ccc | edB | A3 :|!
[L:1/16]GBeBGB | AcecAc | GBeBGB | AcecAc |  aeaeae | [L:1/8] ccc | edB | A2 :|!
K: Am
c/B/ | AAc/B/ | AAc/A/ | Bee | cAc/B/ | AAc/B/ | AAc/A/ | Be^G | A2 :|!
e/f/ | ee^G | AAc | BBe | d/c/B/c/e/f/ | ee^G | AAc | Be^G A2 :|!

